X:1
T:Longnancy's
M:6/8
R:jig
K:Fmaj
FAc ~f2c | cdd cAG | FAc ~f2d | dcA cAG |
FAc ~f2c | cdd cAG | G~A2 cAG | FAG FDC :|
K:Dmin
D2D ~G2A | GDF EDC | ~D3 ~d3 | cAB AGF |
~D3 ~G2A | GDF EFG |[1 ~A3 cAG | FAG FDC :|[2 ~A3 cAc | dcd ede |
K:Fmaj
|: ~f2g agf | fgf edc | c2d Acf | fgf edc |
cfg agf | fgf edc | dAB cAG | FAG FDC :||
